images/message-icon.svg

<svg width="24" height="24" viewBox="0 0 24 24" fill="none" xmlns="http://www.w3.org/2000/svg">
<path d="M7.99997 10H16M7.99997 14H12M21 12C21 16.9706 16.9705 21 12 21C10.843 21 9.73698 20.7817 8.72092 20.384C8.33906 20.2345 7.92595 20.1704 7.52157 20.2385L3.69273 20.8833C3.35371 20.9404 3.05954 20.6463 3.11664 20.3072L3.76144 16.4784C3.82954 16.074 3.76544 15.6609 3.61598 15.279C3.21829 14.263 2.99997 13.157 2.99997 12C2.99997 7.02944 7.02941 3 12 3C16.9705 3 21 7.02944 21 12Z" stroke="white" stroke-width="1.5" stroke-linecap="round"/>
</svg>

<svg width="24" height="24" fill="none" xmlns="http://www.w3.org/2000/svg"><path d="M8 10h8m-8 4h4m9-2a9 9 0 01-12.28 8.384 2.265 2.265 0 00-1.198-.146l-3.83.645a.5.5 0 01-.575-.576l.644-3.829a2.266 2.266 0 00-.145-1.199A9 9 0 1121 12z" stroke="#fff" stroke-width="1.5" stroke-linecap="round"/></svg>
